X:1
T:Questo nobil bambino
T:Giovanni Animuccia
T:Source : Primo libro delle Laude spirituali a tre voci---Roma---A.Gardino---1583. Editor : André Vierendeels (24/11/17). Notes : Original clefs : G2, C1, C3 Editorial accidentals above the staff 
T:Questo nobil bambino
T:©
T:©
C:Giovanni Animuccia
Z:©
%%score [ 1 2 3 ]
L:1/8
Q:1/4=120
M:4/4
K:F
V:1 treble nm="Soprano" snm="S"
V:2 treble nm="Alto" snm="A"
V:3 treble-8 nm="Tenor" snm="T"
V:1
"^1)" z4 B4 | B6 A2 | B4 c4 | d8 | d4 f4 | _e4 d4 | c4 c4 | B8 |[M:2/4] B4 :: d4 |[M:4/4] c6 B2 | %11
w: Que-|sto no-|bil bam-|bi-|no ch'e|na- to|di Ma-|ri-|a,|oi-|me ch'il|
w: Ei|na- sce'in-|a- mo-|ra-|to per|noi in-|a- mo-|ra-|re,|e|tut- ti|
 A4 c4 | B8 | G4 B4 | A4 G4 | A4 A4 | G8 | G8 :| %18
w: pos- se-|des-|se quan-|to be-|ne'ha- ve-|ri-|a.|
w: li- be-|ra-|re dal|gio- go|del pac-|ca-|to,|
V:2
"^2)" z4 G4 | G6 F2 | G4 A4 | B8 | B4 F4 | G4 B4 | B4 A4 | B8 |[M:2/4] B4 :: B4 |[M:4/4] A6 G2 | %11
w: Que-|sto no-|bil bam-|bi-|no ch'e|na- to|di Ma-|ri-|a,|oi-|me ch'il|
w: On-|de stol-|to'et in-|gra-|to sa-|rà ch'il|ca- cia|vi-|a.|Oi-|me ch'il|
 F4 A4 | G8 | D4 G4 | F4 G4 |"^#" G4 F4 | G8 | G8 :| %18
w: pos- se-|des-|se quan-|to be-|ne'ha- ve-|ri-|a.|
w: pos- se-|des-|se, quan-|to be-|ne'ha- ve-|ri-|a.|
V:3
"^3)""^1)""^4)" z4 G4 |"^1)" G6 d2 | G4 F4 | B8 | B4 d4 | c4 B4 | f4 f4 | B8 |[M:2/4] B4 :: B4 | %10
w: Que-|sto no-|bil bam-|bi-|no che|na- to|di Ma-|ri-|a,|oi|
w: Se'l|ve- di|pic- co-|li-|no gia-|cer nel|fie- no'e|sta-|re,|non|
[M:4/4] f4 F4 | F4 F4 | G8 | G4 G4 |"^b" d4 e4 | d4 d4 | G8 | G8 :| %18
w: me ch'il|pos- se-|des-|se quan-|to be-|ne'ha- ve-|ri-|a.|
w: ti scan-|da- liz-|za-|re, per-|ch'è tut-|to di-|vi-|no.|

